X:30
T:Hut On Staffin Island, The 
C:Joe Buchanan's Scottish Tome - Page 017.1
I:017 1
C:Phil Cunningham
R:Hornpipe
Z:Carl Allison
L:1/8
M:4/4
K:A
F | "A" E>FA>B A3B | "A" c>Ac<e "F#m" a2 (g>a) | "D" f3 a "F#m" f>ec>A | "Bm" B>cB>A "D" F3 A |
"A" E>FA>B "A" A3B | "A" c>Ac>e "F#m" a2 (ga) | "D" f3 a "A" f>ec>A | "E7" B2 (c>B) "A" A4 :|
c>e | "F#m" a4 a2 b>a | "C#m" g>fg>a g2 (f>e) | "D" f2 f2 "D" a2>f2 | "A" e>cB>c A>FE>F |
"F#m" a4 a2 (b>a) | "C#m" g>fg>a g2 (f>e) | "F#m" f2 f2 "D" a2>f2 | "A" e>cB>c "A" A<A A2 |
"F#m" a4 a2 (b>a) | "C#m" g>fg>a g2 (f>e) | "F#m" f2 f2 "D" a2>f2 | "A" e>cB>c "D" A3F |
"A" E>FA>B A3B | "A" c>Ac<e "F#m" a2 (g>a) | "D" f3 a "F#m" f>ec>A | "E7" B2 (c>B) A4 |]

